_includes/icons/color-brief.svg

<svg fill="#666" height="50" viewBox="0 0 48 48" width="50" xmlns="http://www.w3.org/2000/svg"><path d="m40 45h-32v-42h22l10 10z" fill="#90caf9"/><path d="m38.5 14h-9.5v-9.5z" fill="#e1f5fe"/><path d="m23 28h12v2h-12z" fill="#1976d2"/><path d="m23 20h12v2h-12z" fill="#1976d2"/><path d="m19 24h-6v-6h6z" fill="#0d47a1"/><path d="m15 20h2v2h-2z" fill="#bbdefb"/><path d="m19 32h-6v-6h6z" fill="#0d47a1"/><path d="m15 28h2v2h-2z" fill="#bbdefb"/><path d="m23 36h12v2h-12z" fill="#1976d2"/><path d="m19 40h-6v-6h6z" fill="#0d47a1"/><path d="m15 36h2v2h-2z" fill="#bbdefb"/></svg>

<svg xmlns="http://www.w3.org/2000/svg" viewBox="0 0 48 48" width="50" height="50" fill="#666"><path fill="#90caf9" d="M40 45L8 45 8 3 30 3 40 13z"/><path fill="#e1f5fe" d="M38.5 14L29 14 29 4.5z"/><path fill="#1976d2" d="M23 28H35V30H23z"/><path fill="#1976d2" d="M23 20H35V22H23z"/><path d="M19,24h-6v-6h6V24z" fill="#0d47a1"/><path fill="#bbdefb" d="M15 20H17V22H15z"/><path d="M19,32h-6v-6h6V32z" fill="#0d47a1"/><path fill="#bbdefb" d="M15 28H17V30H15z"/><path fill="#1976d2" d="M23 36H35V38H23z"/><path d="M19,40h-6v-6h6V40z" fill="#0d47a1"/><path fill="#bbdefb" d="M15 36H17V38H15z"/></svg>
